X: 11937
T: Emu Egg, The
R: slip jig
M: 9/8
K: Cmajor
|({^c}d2)G B>cd A2E|F3 ({AB}c2) D FGA|c3 d2G B>cd|e>dc d2B, C3:|
({^c}d2)G edc dAE|FGA cAc (efe)|(efe) ({^c}d2)G ({^c}d2)E|FGA cAE F3:|
G,2G FDA, B,2C|D2d cAE FDA,|G,2G FDA, B,CD|dDD cAE F3:|

